Origami/64x64/apps/applications-development.svg

<svg width="64" height="64" version="1" xmlns="http://www.w3.org/2000/svg">
 <path d="m4.050798 32.000828c-0.0118 0.33399-0.050799 0.661981-0.050799 0.999971 4e-7 15.511558 12.487644 27.999201 27.999201 27.999201s27.999201-12.487643 27.999201-27.999201c0-0.33767-0.03904-0.665261-0.05078-0.999971-0.527985 15.041571-12.775635 26.999229-27.949202 26.999229-15.173967 0-27.421217-11.957658-27.949202-26.999229z" style="opacity:.2"/>
 <rect transform="matrix(0,-1,-1,0,0,0)" x="-60" y="-60" width="55.998" height="55.998" rx="27.999" ry="27.999" style="fill:#0286c2"/>
 <path d="m28.845703 17c-0.326749 0.03696-0.614118 0.31486-0.673828 0.650391l-0.650391 3.425781c-1.167288 0.473886-2.264048 1.123871-3.226562 1.923828l-3.203125-1.123047c-0.332748-0.119197-0.737237 0.03482-0.916016 0.349609l-3.082031 5.548829c-0.173638 0.319191-0.09971 0.760967 0.167969 1l2.552734 2.326171c-0.08985 0.623403-0.144531 1.249057-0.144531 1.898438 0 0.649382 0.05469 1.277009 0.144531 1.900391l-2.552734 2.324218c-0.267736 0.239013-0.341602 0.680809-0.167969 1l3.082031 5.550782c0.178779 0.314731 0.583268 0.468725 0.916016 0.349609l3.203125-1.125c0.96265 0.799957 2.059274 1.451895 3.226562 1.925781l0.650391 3.423828c0.06581 0.35851 0.394533 0.645431 0.746094 0.650391h6.164062c0.35156-0.0048 0.680191-0.291881 0.746094-0.650391l0.650391-3.423828c1.167268-0.473906 2.264049-1.125824 3.226562-1.925781l3.203125 1.125c0.332747 0.119196 0.737255-0.03496 0.916016-0.349609l3.082031-5.550782c0.173612-0.319191 0.09971-0.760987-0.167969-1l-2.552734-2.324218c0.08985-0.623402 0.144531-1.251009 0.144531-1.900391 0-0.649401-0.05469-1.275056-0.144531-1.898438l2.552734-2.326171c0.267715-0.239033 0.341601-0.680809 0.167969-1l-3.082031-5.548829c-0.178781-0.31473-0.583269-0.468726-0.916016-0.349609l-3.203125 1.125c-0.963868-0.799976-2.059468-1.449842-3.226562-1.923828l-0.650391-3.425781c-0.06596-0.35851-0.396486-0.645432-0.748047-0.650391h-6.164062c-0.02404-8.16e-4 -0.04825-8.16e-4 -0.07227 0l0.001957-0.001953zm3.154297 10c3.313826 0 6 2.686209 6 6s-2.686174 6-6 6c-3.313827 0-6-2.686209-6-6s2.686173-6 6-6z" style="opacity:.2"/>
 <path d="M 32 4.0019531 C 16.488443 4.0019531 4 16.488443 4 32 C 4 32.113553 4.0112846 32.224036 4.0175781 32.335938 C 4.3691113 17.134615 16.711164 5 32 5 C 47.288836 5 59.630889 17.134615 59.982422 32.335938 C 59.988693 32.224116 60 32.113445 60 32 C 60 16.488443 47.511557 4.0019531 32 4.0019531 z" style="fill:#ffffff;opacity:.1"/>
 <path d="m28.845703 16c-0.326749 0.03696-0.614118 0.31486-0.673828 0.650391l-0.650391 3.425781c-1.167288 0.473886-2.264048 1.123871-3.226562 1.923828l-3.203125-1.123047c-0.332748-0.119197-0.737237 0.03482-0.916016 0.349609l-3.082031 5.548829c-0.173638 0.319191-0.09971 0.760967 0.167969 1l2.552734 2.326171c-0.08985 0.623403-0.144531 1.249057-0.144531 1.898438 0 0.649382 0.05469 1.277009 0.144531 1.900391l-2.552734 2.324218c-0.267736 0.239013-0.341602 0.680809-0.167969 1l3.082031 5.550782c0.178779 0.314731 0.583268 0.468725 0.916016 0.349609l3.203125-1.125c0.96265 0.799957 2.059274 1.451895 3.226562 1.925781l0.650391 3.423828c0.06581 0.35851 0.394533 0.645431 0.746094 0.650391h6.164062c0.35156-0.0048 0.680191-0.291881 0.746094-0.650391l0.650391-3.423828c1.167268-0.473906 2.264049-1.125824 3.226562-1.925781l3.203125 1.125c0.332747 0.119196 0.737255-0.03496 0.916016-0.349609l3.082031-5.550782c0.173612-0.319191 0.09971-0.760987-0.167969-1l-2.552734-2.324218c0.08985-0.623402 0.144531-1.251009 0.144531-1.900391 0-0.649401-0.05469-1.275056-0.144531-1.898438l2.552734-2.326171c0.267715-0.239033 0.341601-0.680809 0.167969-1l-3.082031-5.548829c-0.178781-0.31473-0.583269-0.468726-0.916016-0.349609l-3.203125 1.125c-0.963868-0.799976-2.059468-1.449842-3.226562-1.923828l-0.650391-3.425781c-0.06596-0.35851-0.396486-0.645432-0.748047-0.650391h-6.164062c-0.02404-8.16e-4 -0.048246-8.16e-4 -0.072266 0l0.001953-0.001953zm3.154297 10c3.313826 0 6 2.686209 6 6s-2.686174 6-6 6c-3.313827 0-6-2.686209-6-6s2.686173-6 6-6z" style="fill:#ffffff"/>
</svg>

<svg xmlns="http://www.w3.org/2000/svg" width="64" height="64" version="1">
 <path style="opacity:0.2" d="m 4.050798,32.000828 c -0.0118,0.33399 -0.050799,0.661981 -0.050799,0.999971 C 3.9999994,48.512357 16.487643,61 31.9992,61 47.510757,61 59.998401,48.512357 59.998401,33.000799 c 0,-0.33767 -0.03904,-0.665261 -0.05078,-0.999971 -0.527985,15.041571 -12.775635,26.999229 -27.949202,26.999229 -15.173967,0 -27.4212171,-11.957658 -27.949202,-26.999229 z"/>
 <rect style="fill:#0286c2" width="55.998" height="55.998" x="-60" y="-60" rx="27.999" ry="27.999" transform="matrix(0,-1,-1,0,0,0)"/>
 <path style="opacity:0.2" d="m 28.845703,17 c -0.326749,0.03696 -0.614118,0.31486 -0.673828,0.650391 l -0.650391,3.425781 C 26.354196,21.550058 25.257436,22.200043 24.294922,23 l -3.203125,-1.123047 c -0.332748,-0.119197 -0.737237,0.03482 -0.916016,0.349609 l -3.082031,5.548829 c -0.173638,0.319191 -0.09971,0.760967 0.167969,1 l 2.552734,2.326171 C 19.724603,31.724965 19.669922,32.350619 19.669922,33 c 0,0.649382 0.05469,1.277009 0.144531,1.900391 l -2.552734,2.324218 c -0.267736,0.239013 -0.341602,0.680809 -0.167969,1 l 3.082031,5.550782 c 0.178779,0.314731 0.583268,0.468725 0.916016,0.349609 L 24.294922,43 c 0.96265,0.799957 2.059274,1.451895 3.226562,1.925781 l 0.650391,3.423828 c 0.06581,0.35851 0.394533,0.645431 0.746094,0.650391 l 6.164062,0 c 0.35156,-0.0048 0.680191,-0.291881 0.746094,-0.650391 l 0.650391,-3.423828 C 37.645784,44.451875 38.742565,43.799957 39.705078,43 l 3.203125,1.125 c 0.332747,0.119196 0.737255,-0.03496 0.916016,-0.349609 l 3.082031,-5.550782 c 0.173612,-0.319191 0.09971,-0.760987 -0.167969,-1 L 44.185547,34.900391 C 44.275397,34.276989 44.330078,33.649382 44.330078,33 c 0,-0.649401 -0.05469,-1.275056 -0.144531,-1.898438 l 2.552734,-2.326171 c 0.267715,-0.239033 0.341601,-0.680809 0.167969,-1 l -3.082031,-5.548829 c -0.178781,-0.31473 -0.583269,-0.468726 -0.916016,-0.349609 l -3.203125,1.125 C 38.74121,22.201977 37.64561,21.552111 36.478516,21.078125 l -0.650391,-3.425781 c -0.06596,-0.35851 -0.396486,-0.645432 -0.748047,-0.650391 l -6.164062,0 c -0.02404,-8.16e-4 -0.04825,-8.16e-4 -0.07227,0 L 28.845703,17 Z M 32,27 c 3.313826,0 6,2.686209 6,6 0,3.313791 -2.686174,6 -6,6 -3.313827,0 -6,-2.686209 -6,-6 0,-3.313791 2.686173,-6 6,-6 z"/>
 <path style="opacity:0.1;fill:#ffffff" d="M 32 4.0019531 C 16.488443 4.0019531 4 16.488443 4 32 C 4 32.113553 4.0112846 32.224036 4.0175781 32.335938 C 4.3691113 17.134615 16.711164 5 32 5 C 47.288836 5 59.630889 17.134615 59.982422 32.335938 C 59.988693 32.224116 60 32.113445 60 32 C 60 16.488443 47.511557 4.0019531 32 4.0019531 z"/>
 <path style="fill:#ffffff" d="M 28.845703 16 C 28.518954 16.03696 28.231585 16.31486 28.171875 16.650391 L 27.521484 20.076172 C 26.354196 20.550058 25.257436 21.200043 24.294922 22 L 21.091797 20.876953 C 20.759049 20.757756 20.35456 20.911773 20.175781 21.226562 L 17.09375 26.775391 C 16.920112 27.094582 16.99404 27.536358 17.261719 27.775391 L 19.814453 30.101562 C 19.724603 30.724965 19.669922 31.350619 19.669922 32 C 19.669922 32.649382 19.724612 33.277009 19.814453 33.900391 L 17.261719 36.224609 C 16.993983 36.463622 16.920117 36.905418 17.09375 37.224609 L 20.175781 42.775391 C 20.35456 43.090122 20.759049 43.244116 21.091797 43.125 L 24.294922 42 C 25.257572 42.799957 26.354196 43.451895 27.521484 43.925781 L 28.171875 47.349609 C 28.237685 47.708119 28.566408 47.99504 28.917969 48 L 35.082031 48 C 35.433591 47.9952 35.762222 47.708119 35.828125 47.349609 L 36.478516 43.925781 C 37.645784 43.451875 38.742565 42.799957 39.705078 42 L 42.908203 43.125 C 43.24095 43.244196 43.645458 43.09004 43.824219 42.775391 L 46.90625 37.224609 C 47.079862 36.905418 47.00596 36.463622 46.738281 36.224609 L 44.185547 33.900391 C 44.275397 33.276989 44.330078 32.649382 44.330078 32 C 44.330078 31.350599 44.275388 30.724944 44.185547 30.101562 L 46.738281 27.775391 C 47.005996 27.536358 47.079882 27.094582 46.90625 26.775391 L 43.824219 21.226562 C 43.645438 20.911832 43.24095 20.757836 42.908203 20.876953 L 39.705078 22.001953 C 38.74121 21.201977 37.64561 20.552111 36.478516 20.078125 L 35.828125 16.652344 C 35.762165 16.293834 35.431639 16.006912 35.080078 16.001953 L 28.916016 16.001953 C 28.891976 16.001137 28.86777 16.001137 28.84375 16.001953 L 28.845703 16 z M 32 26 C 35.313826 26 38 28.686209 38 32 C 38 35.313791 35.313826 38 32 38 C 28.686173 38 26 35.313791 26 32 C 26 28.686209 28.686173 26 32 26 z"/>
</svg>
